data/styles/clear/style-clear/symbols/outdoor-shop-m.svg

<svg height="24" viewBox="0 0 24 24" width="24"><g fill="none" fill-rule="evenodd"><circle cx="12" cy="12" fill="#fff" opacity=".6" r="12"/><circle cx="12" cy="12" fill="#8c5f93" r="11"/><path d="m12.7383607 5c-.7845458 0-1.4205465.62680135-1.4205465 1.4s.6360007 1.4 1.4205465 1.4c.7845457 0 1.4205464-.62680135 1.4205464-1.4s-.6360007-1.4-1.4205464-1.4zm-3.10744538 2.865625c-.95886885.10828125-1.83339276.739375-2.15301571 1.684375l-.42172472 1.4c-.21308197.63.20420355 1.32125.84344945 1.53125.71027322.21 1.36283674-.13125 1.57591871-.83125l1.13199795-3.71875c-.319623-.0875-.65700273-.10171875-.97662568-.065625zm1.62031078.175-.4217247 1.334375.0443921.021875-.8434495 2.821875c-.14205464.56.084345 1.115625.5105089 1.465625l2.0864276 1.6625c.0749054.158046.1109802.3312358.1109802.503125v3.15h1.4205464v-3.15c0-.5755554-.1919819-1.1443187-.577097-1.61875l-.022196-.021875-1.3761544-1.575.6880772-2.384375c.0233836.0216544.0434304.042802.0665881.065625l.577097.56875c.4515221.4449914 1.1087855.5864502 1.6425068.48125l1.131998-.21875v7.853125h.7102732v-10.5h-.7102732v1.203125l-1.4205465.284375c-.1765519.0347997-.2384401.0275084-.3551366-.0875l-.0443921-.04375-.5105088-.525c-.5025077-.49523936-1.119966-.8335782-1.7978791-1.00625h-.0221961zm-1.0654098 6.475-1.64250685 4.484375h1.48713455l1.2873702-3.5z" fill="#fff" fill-rule="nonzero"/></g></svg>

<svg width="24" height="24" viewBox="0 0 24 24">
  <g fill="none" fill-rule="evenodd">
    <circle cx="12" cy="12" r="12" fill="#FFF" opacity=".6"/>
    <circle cx="12" cy="12" r="11" fill="#8C5F93"/>
    <path fill="#FFF" fill-rule="nonzero" d="M12.7383607,5 C11.9538149,5 11.3178142,5.62680135 11.3178142,6.4 C11.3178142,7.17319865 11.9538149,7.8 12.7383607,7.8 C13.5229064,7.8 14.1589071,7.17319865 14.1589071,6.4 C14.1589071,5.62680135 13.5229064,5 12.7383607,5 Z M9.63091532,7.865625 C8.67204647,7.97390625 7.79752256,8.605 7.47789961,9.55 L7.05617489,10.95 C6.84309292,11.58 7.26037844,12.27125 7.89962434,12.48125 C8.60989756,12.69125 9.26246108,12.35 9.47554305,11.65 L10.607541,7.93125 C10.287918,7.84375 9.95053827,7.82953125 9.63091532,7.865625 Z M11.2512261,8.040625 L10.8295014,9.375 L10.8738935,9.396875 L10.030444,12.21875 C9.88838936,12.77875 10.114789,13.334375 10.5409529,13.684375 L12.6273805,15.346875 C12.7022859,15.504921 12.7383607,15.6781108 12.7383607,15.85 L12.7383607,19 L14.1589071,19 L14.1589071,15.85 C14.1589071,15.2744446 13.9669252,14.7056813 13.5818101,14.23125 L13.5596141,14.209375 L12.1834597,12.634375 L12.8715369,10.25 C12.8949205,10.2716544 12.9149673,10.292802 12.938125,10.315625 L13.515222,10.884375 C13.9667441,11.3293664 14.6240075,11.4708252 15.1577288,11.365625 L16.2897268,11.146875 L16.2897268,19 L17,19 L17,8.5 L16.2897268,8.5 L16.2897268,9.703125 L14.8691803,9.9875 C14.6926284,10.0222997 14.6307402,10.0150084 14.5140437,9.9 L14.4696516,9.85625 L13.9591428,9.33125 C13.4566351,8.83601064 12.8391768,8.4976718 12.1612637,8.325 L12.1390676,8.325 L11.2512261,8.040625 Z M10.1858163,14.515625 L8.54330945,19 L10.030444,19 L11.3178142,15.5 L10.1858163,14.515625 Z"/>
  </g>
</svg>
